lib/assets/icons/svg/outlined-content-produtivity.svg

<svg xmlns="http://www.w3.org/2000/svg" viewBox="0 0 24 24"><path d="M15.92 14.49h-2a.789.789 0 0 1-.56-.23.822.822 0 0 1-.22-.55v-1.09a.118.118 0 0 0-.07-.1 4.783 4.783 0 0 1-.69-.4.128.128 0 0 0-.12 0l-.93.53a.8.8 0 0 1-1.06-.25l-1.08-1.87a.8.8 0 0 1 .25-1.06l1-.55a.08.08 0 0 0 .06-.1v-.37a1.839 1.839 0 0 1 0-.21v-.13c0-.04 0-.14-.07-.16l-.92-.53a.8.8 0 0 1-.28-1.09l1-1.75a.81.81 0 0 1 .66-.37.66.66 0 0 1 .45.17l.87.49a.202.202 0 0 0 .17 0c.206-.138.42-.265.64-.38.07 0 .1-.07.1-.11v-1.1a.75.75 0 0 1 .23-.55.763.763 0 0 1 .55-.23h2a.789.789 0 0 1 .56.23.82.82 0 0 1 .22.56V4.4a.11.11 0 0 0 .07.1c.24.115.471.249.69.4.038.02.082.02.12 0l.93-.53a.8.8 0 0 1 1.06.25l1 1.78a.8.8 0 0 1-.24 1.07l-1 .55-.07.12v.35c.005.08.005.16 0 .24v.25l1.08.62a.77.77 0 0 1 .09 1.08l-1 1.68a.82.82 0 0 1-1.09.27l-.92-.53a.118.118 0 0 0-.13 0 4.341 4.341 0 0 1-.67.38.14.14 0 0 0-.08.11v1.08a.789.789 0 0 1-.23.56.801.801 0 0 1-.37.26zm-3.63-3.39c.229 0 .452.07.64.2.16.117.331.217.51.3.4.173.662.564.67 1v.88h1.59v-.86a1.12 1.12 0 0 1 .68-1 4.22 4.22 0 0 0 .5-.29 1.1 1.1 0 0 1 1.18-.06l.77.43.83-1.38-.74-.42a1.07 1.07 0 0 1-.56-1.09.603.603 0 0 1 0-.18.335.335 0 0 0 0-.1v-.36a1.07 1.07 0 0 1 .58-1l.73-.41-.82-1.39-.76.43a1.13 1.13 0 0 1-1.19 0 2.691 2.691 0 0 0-.52-.3 1.111 1.111 0 0 1-.66-1v-1h-1.57v.87a1.101 1.101 0 0 1-.68 1 5.673 5.673 0 0 0-.51.3c-.359.237-.819.26-1.2.06L11 5.31l-.8 1.35.74.42c.378.214.6.626.57 1.06.004.077.004.153 0 .23v.39a1.07 1.07 0 0 1-.58 1l-.73.41.8 1.51.76-.43c.162-.093.344-.144.53-.15zm2.71 0c-1.994 0-3.24-2.158-2.243-3.885.997-1.727 3.489-1.727 4.486 0A2.589 2.589 0 0 1 15 11.1zm0-4.17a1.59 1.59 0 1 0 0 3.18 1.59 1.59 0 0 0 0-3.18zm-3.9 14.7c-.152 0-.303-.02-.45-.06l-3.76-1.8a.762.762 0 0 0-.247-.067 1 1 0 0 1-.973.767H3.5a1 1 0 0 1-1-1v-4.29a1 1 0 0 1 1-1h2.17a1 1 0 0 1 .998.934c.498-.384.674-.384.772-.384h3.7l3.85.52c.408.02.793.2 1.07.5a1.6 1.6 0 0 1 .36.61L19.11 15a1.54 1.54 0 0 1 1.15-.22c.41.086.769.33 1 .68l.12.22a1.84 1.84 0 0 1-1 2.19l-3 1.55-5.78 2.17a2.044 2.044 0 0 1-.5.04zm-3.78-2.76L11 20.64c.11.014.22.014.33 0L17 18.47l3-1.54a.86.86 0 0 0 .51-.95.62.62 0 0 0-.39-.26.609.609 0 0 0-.45.1l-3.37 1.76a1.83 1.83 0 0 1-1.89.75L11 17.86a.5.5 0 0 1-.43-.56.52.52 0 0 1 .57-.43l3.35.48a.87.87 0 0 0 1-.47.62.62 0 0 0-.59-.63l-3.84-.52H7.44s-.41.33-.77.65v2.32a1.6 1.6 0 0 1 .65.17zM3.5 15.18v4.29h2.17v-4.29z"/></svg>

<svg viewBox="0 0 24 24" xmlns="http://www.w3.org/2000/svg">
  <path  d="M 15.92 14.49 L 13.92 14.49 C 13.71 14.491 13.509 14.408 13.36 14.26 C 13.221 14.11 13.142 13.914 13.14 13.71 L 13.14 12.62 C 13.137 12.576 13.11 12.538 13.07 12.52 C 12.829 12.406 12.598 12.272 12.38 12.12 C 12.342 12.1 12.298 12.1 12.26 12.12 L 11.33 12.65 C 10.966 12.857 10.503 12.748 10.27 12.4 L 9.19 10.53 C 8.983 10.166 9.092 9.703 9.44 9.47 L 10.44 8.92 C 10.485 8.91 10.513 8.864 10.5 8.82 L 10.5 8.45 C 10.496 8.38 10.496 8.31 10.5 8.24 L 10.5 8.11 C 10.5 8.07 10.5 7.97 10.43 7.95 L 9.51 7.42 C 9.134 7.195 9.009 6.709 9.23 6.33 L 10.23 4.58 C 10.375 4.355 10.622 4.217 10.89 4.21 C 11.056 4.208 11.217 4.269 11.34 4.38 L 12.21 4.87 C 12.264 4.895 12.326 4.895 12.38 4.87 C 12.586 4.732 12.8 4.605 13.02 4.49 C 13.09 4.49 13.12 4.42 13.12 4.38 L 13.12 3.28 C 13.117 3.073 13.201 2.874 13.35 2.73 C 13.494 2.582 13.693 2.499 13.9 2.5 L 15.9 2.5 C 16.11 2.499 16.311 2.582 16.46 2.73 C 16.602 2.882 16.68 3.082 16.68 3.29 L 16.68 4.4 C 16.681 4.444 16.709 4.484 16.75 4.5 C 16.99 4.615 17.221 4.749 17.44 4.9 C 17.478 4.92 17.522 4.92 17.56 4.9 L 18.49 4.37 C 18.854 4.163 19.317 4.272 19.55 4.62 L 20.55 6.4 C 20.765 6.764 20.66 7.233 20.31 7.47 L 19.31 8.02 L 19.24 8.14 L 19.24 8.49 C 19.245 8.57 19.245 8.65 19.24 8.73 L 19.24 8.98 L 20.32 9.6 C 20.641 9.874 20.681 10.356 20.41 10.68 L 19.41 12.36 C 19.175 12.724 18.698 12.842 18.32 12.63 L 17.4 12.1 C 17.36 12.074 17.31 12.074 17.27 12.1 C 17.058 12.246 16.834 12.374 16.6 12.48 C 16.556 12.5 16.526 12.542 16.52 12.59 L 16.52 13.67 C 16.521 13.88 16.438 14.081 16.29 14.23 C 16.194 14.35 16.066 14.441 15.92 14.49 Z M 12.29 11.1 C 12.519 11.1 12.742 11.17 12.93 11.3 C 13.09 11.417 13.261 11.517 13.44 11.6 C 13.84 11.773 14.102 12.164 14.11 12.6 L 14.11 13.48 L 15.7 13.48 L 15.7 12.62 C 15.712 12.182 15.977 11.792 16.38 11.62 C 16.553 11.535 16.72 11.438 16.88 11.33 C 17.228 11.083 17.688 11.059 18.06 11.27 L 18.83 11.7 L 19.66 10.32 L 18.92 9.9 C 18.523 9.69 18.3 9.255 18.36 8.81 C 18.351 8.75 18.351 8.69 18.36 8.63 C 18.365 8.597 18.365 8.563 18.36 8.53 L 18.36 8.17 C 18.341 7.752 18.568 7.361 18.94 7.17 L 19.67 6.76 L 18.85 5.37 L 18.09 5.8 C 17.725 6.026 17.265 6.026 16.9 5.8 C 16.738 5.681 16.564 5.58 16.38 5.5 C 15.984 5.324 15.726 4.934 15.72 4.5 L 15.72 3.5 L 14.15 3.5 L 14.15 4.37 C 14.143 4.809 13.876 5.202 13.47 5.37 C 13.295 5.461 13.125 5.561 12.96 5.67 C 12.601 5.907 12.141 5.93 11.76 5.73 L 11 5.31 L 10.2 6.66 L 10.94 7.08 C 11.318 7.294 11.54 7.706 11.51 8.14 C 11.514 8.217 11.514 8.293 11.51 8.37 L 11.51 8.76 C 11.529 9.178 11.302 9.569 10.93 9.76 L 10.2 10.17 L 11 11.68 L 11.76 11.25 C 11.922 11.157 12.104 11.106 12.29 11.1 Z M 15 11.1 C 13.006 11.1 11.76 8.942 12.757 7.215 C 13.754 5.488 16.246 5.488 17.243 7.215 C 17.472 7.612 17.592 8.062 17.59 8.52 C 17.584 9.947 16.427 11.1 15 11.1 Z M 15 6.93 C 13.776 6.93 13.011 8.255 13.623 9.315 C 14.235 10.375 15.765 10.375 16.377 9.315 C 16.517 9.073 16.59 8.799 16.59 8.52 C 16.59 7.642 15.878 6.93 15 6.93 Z M 11.1 21.63 C 10.948 21.63 10.797 21.61 10.65 21.57 L 6.89 19.77 C 6.812 19.734 6.728 19.711 6.643 19.703 C 6.538 20.143 6.142 20.47 5.67 20.47 L 3.5 20.47 C 2.948 20.47 2.5 20.022 2.5 19.47 L 2.5 15.18 C 2.5 14.628 2.948 14.18 3.5 14.18 L 5.67 14.18 C 6.2 14.18 6.634 14.593 6.668 15.114 C 7.166 14.73 7.342 14.73 7.44 14.73 L 11.14 14.73 L 14.99 15.25 C 15.398 15.27 15.783 15.45 16.06 15.75 C 16.224 15.924 16.347 16.132 16.42 16.36 L 19.11 15 C 19.449 14.778 19.863 14.699 20.26 14.78 C 20.67 14.866 21.029 15.11 21.26 15.46 L 21.38 15.68 C 21.637 16.557 21.211 17.49 20.38 17.87 L 17.38 19.42 L 11.6 21.59 C 11.436 21.624 11.268 21.637 11.1 21.63 Z M 7.32 18.87 L 11 20.64 C 11.11 20.654 11.22 20.654 11.33 20.64 L 17 18.47 L 20 16.93 C 20.372 16.772 20.584 16.377 20.51 15.98 C 20.419 15.846 20.279 15.752 20.12 15.72 C 19.963 15.693 19.801 15.729 19.67 15.82 L 16.3 17.58 C 15.88 18.189 15.134 18.485 14.41 18.33 L 11 17.86 C 10.727 17.824 10.535 17.573 10.57 17.3 C 10.616 17.028 10.866 16.84 11.14 16.87 L 14.49 17.35 C 14.893 17.452 15.312 17.255 15.49 16.88 C 15.496 16.545 15.235 16.266 14.9 16.25 L 11.06 15.73 L 7.44 15.73 C 7.44 15.73 7.03 16.06 6.67 16.38 L 6.67 18.7 C 6.896 18.71 7.118 18.768 7.32 18.87 Z M 3.5 15.18 L 3.5 19.47 L 5.67 19.47 L 5.67 15.18 Z"/>
</svg>
